X:1
T:The Master’s Call
T:The Master’s Call
T:W. S. Martin
T:Mrs. J. P. Bixby, 1887
T:Public Domain Courtesy of the Cyber Hymnal™
C:W. S. Martin
Z:Public Domain
Z:Courtesy of the Cyber Hymnal™
%%score ( 1 2 ) ( 3 4 )
L:1/8
Q:1/4=85
M:6/8
K:G
V:1 treble 
V:2 treble 
V:3 bass 
V:4 bass 
V:1
 [DB] | [DB][B,G][CA] [DB]2 [DB] | [Ec][EG][_EA] [DB]2 [DB] | [FA][FA][FA] [EG][EG][FA] | %4
w: 1.~The|Mas- ter has come, He|call- eth for me, Oh,|pre- cious the mess- age and|
w: 2.~The|Mas- ter has come, He|call- eth for thee, Yes,|Je- sus the Mas- ter has|
w: 3.~The|Mas- ter has come, He|call- eth for thee, A-|way with thy ea- rth- ly|
 [GB]3- [GB]2 [DB] | [DB][B,G][CA] [DB]2 [DB] | [Ec][EG][_EA] [DB]2 [DB] | %7
w: true; * With|haste, Lord, I rise and|come un- to Thee, All|
w: come; * Be-|lieve in His word, and|trust in His grace, Why|
w: care; * He|of- fers sweet rest, O|sin- ner, to thee; Thy|
 [^CA][CE][DF] [EG][DF][CE] | D3- D2 ||"^Refrain" D | D4 DD | D3 [DG]2 D | D4 DD | D3- D2 D | %14
w: praise for the glad in- ter-|view. *|The|Mas- ter is|come, He call-|eth for thee;|He * call-|
w: long- er in sin shouldst thou|roam? *||||||
w: bur- den He glad- ly will|bear. *||||||
 [Fc][Ec][Dc] [DB]2 D | [^DA][EA][FA] [EG]2 [EG] | [EG][DF][CE] [B,D][DG][DG] | %17
w: eth for thee, He call-|eth for thee, He call-|eth, He call- eth for thee|
w: |||
w: |||
"^riten." [EA][DG][DF] !fermata![DG]2 |] %18
w: and for me. *|
w: |
w: |
V:2
 x | x6 | x6 | x6 | x6 | x6 | x6 | x6 | D3- D2 || D | D4 DD | D3- D x2 | D4 DD | D3- D2 D | x5 D | %15
 x6 | x6 | x5 |] %18
V:3
 G, | G,G,G, G,2 G, | [C,G,][C,G,][C,G,] [G,,G,]2 [G,,G,] | [D,C][D,C][D,C] [E,B,][E,B,][D,D] | %4
w: ~|~ ~ ~ ~ ~|~ ~ ~ ~ ~|~ ~ ~ ~ ~ ~|
 [G,D]3- [G,D]2 [G,,G,] | [G,,G,][G,,G,][G,,G,] [G,,G,]2 [G,,G,] | %6
w: ~ * ~|~ ~ ~ ~ ~|
 [C,G,][C,G,][C,G,] [G,,G,]2 [G,,G,] | [A,,E,][A,,A,][A,,A,] [A,,A,][A,,A,][A,,G,] | %8
w: ~ ~ ~ ~ ~|~ ~ ~ ~ ~ ~|
 [D,F,]3- [D,F,]2 || [D,F,] | [D,F,][E,G,][F,A,] [A,C][G,B,][F,A,] | [G,B,]3- [G,B,]2 [D,F,] | %12
w: ~ *|The|Mas- ter, the Mas- ter is|come, * He|
 [D,F,][E,G,][F,A,] [A,C][G,B,][F,A,] | [G,B,]3- [G,B,]2 [D,F,] | [D,A,][D,G,][D,F,] G,2 [G,B,] | %15
w: call- eth, He call- eth for|thee * *||
 [B,,B,][^C,B,][^D,B,] [E,B,]2 [E,B,] | [C,C][C,C][C,G,] [G,,G,][B,,G,][B,,G,] | %17
w: ||
 [C,C][D,B,][D,A,] !fermata![G,,B,]2 |] %18
w: |
V:4
 G, | G,G,G, G,2 G, | x6 | x6 | x6 | x6 | x6 | x6 | x5 || x | x6 | x6 | x6 | x6 | x3 G,2 x | x6 | %16
 x6 | x5 |] %18

